src/app/assets/images/success-banner.svg

<svg xmlns="http://www.w3.org/2000/svg" width="551" height="143"><path stroke="#DBDEE5" stroke-width="2" fill="none" d="M50.184 136.897C22.734 135.186 1 112.381 1 84.5 1 55.505 24.505 32 53.5 32c27.362 0 49.835 20.932 52.28 47.656.145 1.595 1.488 4.344 7.22 4.344h97"/><path stroke="#DBDEE5" stroke-width="2" fill="none" d="M54 131a5 5 0 11-.001 10.001A5 5 0 0154 131zM53.5 52C71.449 52 86 66.551 86 84.5c0 17.949-14.551 32.5-32.5 32.5C35.551 117 21 102.449 21 84.5 21 66.551 35.551 52 53.5 52z"/><path stroke="#DBDEE5" stroke-width="2" fill="none" d="M80 67S62.959 79.613 61 81c-1.959 1.387-6 4.596-6 9v26M74 61S58.06 72.398 56 74c-2.06 1.602-7.103 2.131-11-1-3.897-3.131-13-11-13-11M499.816 32.103C527.266 33.814 549 56.619 549 84.5c0 28.995-23.505 52.5-52.5 52.5-27.362 0-49.835-20.932-52.279-47.656C444.075 87.749 442.732 85 437 85h-93"/><path stroke="#DBDEE5" stroke-width="2" fill="none" d="M496 28a5 5 0 11-.001 10.001A5 5 0 01496 28zM496.5 52c17.949 0 32.5 14.551 32.5 32.5 0 17.949-14.551 32.5-32.5 32.5-17.949 0-32.5-14.551-32.5-32.5 0-17.949 14.551-32.5 32.5-32.5z"/><path stroke="#DBDEE5" stroke-width="2" fill="none" d="M470 102s17.041-12.613 19-14c1.959-1.387 6-4.596 6-9V53M476 108s15.94-11.398 18-13c2.06-1.602 7.103-2.131 11 1 3.897 3.131 13 11 13 11M227.179 102.532C234.534 122.644 253.84 137 276.5 137c26.927 0 49.118-20.271 52.148-46.385C328.88 88.609 332.744 85 336 85h8M326.129 66.468C318.754 46.356 299.397 32 276.678 32c-26.998 0-49.248 20.271-52.285 46.385-.234 2.006-4.107 5.615-7.372 5.615H209"/><path fill-rule="evenodd" stroke="#212225" stroke-width="2" fill="#289548" d="M276.5 52c17.949 0 32.5 14.551 32.5 32.5 0 17.949-14.551 32.5-32.5 32.5-17.949 0-32.5-14.551-32.5-32.5 0-17.949 14.551-32.5 32.5-32.5z"/><path fill-rule="evenodd" fill="#FFF" d="M286.937 75.996l-12.188 12.001-5.687-5.604L265 86.395l9.749 9.602L291 79.999l-4.063-4.003z"/><path stroke="#DBDEE5" stroke-width="2" fill="none" d="M326 66a5 5 0 11-.001 10.001A5 5 0 01326 66zM227 94a5 5 0 11-.001 10.001A5 5 0 01227 94z"/><path fill-rule="evenodd" fill="#DBDEE5" d="M478 8v4h-2V8h-4V6h4V2h2v4h4v2h-4zm-25 21h-2V8h-38v38h16v2h-16v11h-2V48h-10v-2h10V8h-38v11h-2V8h-11V6h11V0h2v6h38V0h2v6h38V0h2v6h8v2h-8v21zm-82 79h2v18h38v-8h2v8h10v2h-10v7h-2v-7h-38v7h-2v-7h-15v-2h15v-18zM248 12h-2V8h-4V6h4V2h2v4h4v2h-4v4zm-35 14h-2V8h-18V6h18V0h2v6h16v2h-16v18zm-40 109h-2v-7h-38v7h-2v-7h-10v-2h10v-12h2v12h38v-10h2v10h18v2h-18v7zm-42-31v-4h-4v-2h4v-4h2v4h4v2h-4v4h-2zm2-58h9v2h-9v11h-2V48h-14v-2h14V8H93v11h-2V8H73V6h18V0h2v6h38V0h2v6h11v2h-11v38z"/></svg>

<svg 
 xmlns="http://www.w3.org/2000/svg"
 xmlns:xlink="http://www.w3.org/1999/xlink"
 width="551px" height="143px">
<path fill-rule="evenodd"  stroke="rgb(219, 222, 229)" stroke-width="2px" stroke-linecap="butt" stroke-linejoin="miter" fill="none"
 d="M50.184,136.897 C22.734,135.186 1.000,112.381 1.000,84.500 C1.000,55.505 24.505,32.000 53.500,32.000 C80.862,32.000 103.335,52.932 105.780,79.656 C105.925,81.251 107.268,84.000 113.000,84.000 C118.732,84.000 210.000,84.000 210.000,84.000 "/>
<path fill-rule="evenodd"  stroke="rgb(219, 222, 229)" stroke-width="2px" stroke-linecap="butt" stroke-linejoin="miter" fill="none"
 d="M54.000,131.000 C56.761,131.000 59.000,133.239 59.000,136.000 C59.000,138.761 56.761,141.000 54.000,141.000 C51.239,141.000 49.000,138.761 49.000,136.000 C49.000,133.239 51.239,131.000 54.000,131.000 Z"/>
<path fill-rule="evenodd"  stroke="rgb(219, 222, 229)" stroke-width="2px" stroke-linecap="butt" stroke-linejoin="miter" fill="none"
 d="M53.500,52.000 C71.449,52.000 86.000,66.551 86.000,84.500 C86.000,102.449 71.449,117.000 53.500,117.000 C35.551,117.000 21.000,102.449 21.000,84.500 C21.000,66.551 35.551,52.000 53.500,52.000 Z"/>
<path fill-rule="evenodd"  stroke="rgb(219, 222, 229)" stroke-width="2px" stroke-linecap="butt" stroke-linejoin="miter" fill="none"
 d="M80.000,67.000 C80.000,67.000 62.959,79.613 61.000,81.000 C59.041,82.387 55.000,85.596 55.000,90.000 C55.000,94.404 55.000,116.000 55.000,116.000 "/>
<path fill-rule="evenodd"  stroke="rgb(219, 222, 229)" stroke-width="2px" stroke-linecap="butt" stroke-linejoin="miter" fill="none"
 d="M74.000,61.000 C74.000,61.000 58.060,72.398 56.000,74.000 C53.940,75.602 48.897,76.131 45.000,73.000 C41.103,69.869 32.000,62.000 32.000,62.000 "/>
<path fill-rule="evenodd"  stroke="rgb(219, 222, 229)" stroke-width="2px" stroke-linecap="butt" stroke-linejoin="miter" fill="none"
 d="M499.816,32.103 C527.266,33.814 549.000,56.619 549.000,84.500 C549.000,113.495 525.495,137.000 496.500,137.000 C469.138,137.000 446.665,116.068 444.221,89.344 C444.075,87.749 442.732,85.000 437.000,85.000 C431.268,85.000 344.000,85.000 344.000,85.000 "/>
<path fill-rule="evenodd"  stroke="rgb(219, 222, 229)" stroke-width="2px" stroke-linecap="butt" stroke-linejoin="miter" fill="none"
 d="M496.000,28.000 C498.761,28.000 501.000,30.239 501.000,33.000 C501.000,35.761 498.761,38.000 496.000,38.000 C493.239,38.000 491.000,35.761 491.000,33.000 C491.000,30.239 493.239,28.000 496.000,28.000 Z"/>
<path fill-rule="evenodd"  stroke="rgb(219, 222, 229)" stroke-width="2px" stroke-linecap="butt" stroke-linejoin="miter" fill="none"
 d="M496.500,52.000 C514.449,52.000 529.000,66.551 529.000,84.500 C529.000,102.449 514.449,117.000 496.500,117.000 C478.551,117.000 464.000,102.449 464.000,84.500 C464.000,66.551 478.551,52.000 496.500,52.000 Z"/>
<path fill-rule="evenodd"  stroke="rgb(219, 222, 229)" stroke-width="2px" stroke-linecap="butt" stroke-linejoin="miter" fill="none"
 d="M470.000,102.000 C470.000,102.000 487.041,89.387 489.000,88.000 C490.959,86.613 495.000,83.404 495.000,79.000 C495.000,74.596 495.000,53.000 495.000,53.000 "/>
<path fill-rule="evenodd"  stroke="rgb(219, 222, 229)" stroke-width="2px" stroke-linecap="butt" stroke-linejoin="miter" fill="none"
 d="M476.000,108.000 C476.000,108.000 491.940,96.602 494.000,95.000 C496.060,93.398 501.103,92.869 505.000,96.000 C508.897,99.131 518.000,107.000 518.000,107.000 "/>
<path fill-rule="evenodd"  stroke="rgb(219, 222, 229)" stroke-width="2px" stroke-linecap="butt" stroke-linejoin="miter" fill="none"
 d="M227.179,102.532 C234.534,122.644 253.840,137.000 276.500,137.000 C303.427,137.000 325.618,116.729 328.648,90.615 C328.880,88.609 332.744,85.000 336.000,85.000 C339.256,85.000 344.000,85.000 344.000,85.000 "/>
<path fill-rule="evenodd"  stroke="rgb(219, 222, 229)" stroke-width="2px" stroke-linecap="butt" stroke-linejoin="miter" fill="none"
 d="M326.129,66.468 C318.754,46.356 299.397,32.000 276.678,32.000 C249.680,32.000 227.430,52.271 224.393,78.385 C224.159,80.391 220.286,84.000 217.021,84.000 C213.756,84.000 209.000,84.000 209.000,84.000 "/>
<path fill-rule="evenodd"  stroke="rgb(33, 34, 37)" stroke-width="2px" stroke-linecap="butt" stroke-linejoin="miter" fill="rgb(40, 149, 72)"
 d="M276.500,52.000 C294.449,52.000 309.000,66.551 309.000,84.500 C309.000,102.449 294.449,117.000 276.500,117.000 C258.551,117.000 244.000,102.449 244.000,84.500 C244.000,66.551 258.551,52.000 276.500,52.000 Z"/>
<path fill-rule="evenodd"  fill="rgb(255, 255, 255)"
 d="M286.937,75.996 L274.749,87.997 L269.062,82.393 L265.000,86.395 L274.749,95.997 L291.000,79.999 L286.937,75.996 Z"/>
<path fill-rule="evenodd"  stroke="rgb(219, 222, 229)" stroke-width="2px" stroke-linecap="butt" stroke-linejoin="miter" fill="none"
 d="M326.000,66.000 C328.761,66.000 331.000,68.239 331.000,71.000 C331.000,73.761 328.761,76.000 326.000,76.000 C323.239,76.000 321.000,73.761 321.000,71.000 C321.000,68.239 323.239,66.000 326.000,66.000 Z"/>
<path fill-rule="evenodd"  stroke="rgb(219, 222, 229)" stroke-width="2px" stroke-linecap="butt" stroke-linejoin="miter" fill="none"
 d="M227.000,94.000 C229.761,94.000 232.000,96.239 232.000,99.000 C232.000,101.761 229.761,104.000 227.000,104.000 C224.239,104.000 222.000,101.761 222.000,99.000 C222.000,96.239 224.239,94.000 227.000,94.000 Z"/>
<path fill-rule="evenodd"  fill="rgb(219, 222, 229)"
 d="M478.000,8.000 L478.000,12.000 L476.000,12.000 L476.000,8.000 L472.000,8.000 L472.000,6.000 L476.000,6.000 L476.000,2.000 L478.000,2.000 L478.000,6.000 L482.000,6.000 L482.000,8.000 L478.000,8.000 ZM453.000,29.000 L451.000,29.000 L451.000,8.000 L413.000,8.000 L413.000,46.000 L429.000,46.000 L429.000,48.000 L413.000,48.000 L413.000,59.000 L411.000,59.000 L411.000,48.000 L401.000,48.000 L401.000,46.000 L411.000,46.000 L411.000,8.000 L373.000,8.000 L373.000,19.000 L371.000,19.000 L371.000,8.000 L360.000,8.000 L360.000,6.000 L371.000,6.000 L371.000,-0.000 L373.000,-0.000 L373.000,6.000 L411.000,6.000 L411.000,-0.000 L413.000,-0.000 L413.000,6.000 L451.000,6.000 L451.000,-0.000 L453.000,-0.000 L453.000,6.000 L461.000,6.000 L461.000,8.000 L453.000,8.000 L453.000,29.000 ZM371.000,108.000 L373.000,108.000 L373.000,126.000 L411.000,126.000 L411.000,118.000 L413.000,118.000 L413.000,126.000 L423.000,126.000 L423.000,128.000 L413.000,128.000 L413.000,135.000 L411.000,135.000 L411.000,128.000 L373.000,128.000 L373.000,135.000 L371.000,135.000 L371.000,128.000 L356.000,128.000 L356.000,126.000 L371.000,126.000 L371.000,108.000 ZM248.000,12.000 L246.000,12.000 L246.000,8.000 L242.000,8.000 L242.000,6.000 L246.000,6.000 L246.000,2.000 L248.000,2.000 L248.000,6.000 L252.000,6.000 L252.000,8.000 L248.000,8.000 L248.000,12.000 ZM213.000,26.000 L211.000,26.000 L211.000,8.000 L193.000,8.000 L193.000,6.000 L211.000,6.000 L211.000,-0.000 L213.000,-0.000 L213.000,6.000 L229.000,6.000 L229.000,8.000 L213.000,8.000 L213.000,26.000 ZM173.000,135.000 L171.000,135.000 L171.000,128.000 L133.000,128.000 L133.000,135.000 L131.000,135.000 L131.000,128.000 L121.000,128.000 L121.000,126.000 L131.000,126.000 L131.000,114.000 L133.000,114.000 L133.000,126.000 L171.000,126.000 L171.000,116.000 L173.000,116.000 L173.000,126.000 L191.000,126.000 L191.000,128.000 L173.000,128.000 L173.000,135.000 ZM131.000,104.000 L131.000,100.000 L127.000,100.000 L127.000,98.000 L131.000,98.000 L131.000,94.000 L133.000,94.000 L133.000,98.000 L137.000,98.000 L137.000,100.000 L133.000,100.000 L133.000,104.000 L131.000,104.000 ZM133.000,46.000 L142.000,46.000 L142.000,48.000 L133.000,48.000 L133.000,59.000 L131.000,59.000 L131.000,48.000 L117.000,48.000 L117.000,46.000 L131.000,46.000 L131.000,8.000 L93.000,8.000 L93.000,19.000 L91.000,19.000 L91.000,8.000 L73.000,8.000 L73.000,6.000 L91.000,6.000 L91.000,-0.000 L93.000,-0.000 L93.000,6.000 L131.000,6.000 L131.000,-0.000 L133.000,-0.000 L133.000,6.000 L144.000,6.000 L144.000,8.000 L133.000,8.000 L133.000,46.000 Z"/>
</svg>
